theme/dist/icons/youtube.svg

<svg fill="none" height="24" viewBox="0 0 24 24" width="24" xmlns="http://www.w3.org/2000/svg"><path d="m22.0617 6.93984c-.1195-.44522-.3539-.85124-.6797-1.17741-.3257-.32618-.7315-.56107-1.1765-.68118-1.6383-.44062-8.2055-.44063-8.2055-.44063s-6.56719 0-8.20547.43829c-.44526.11971-.85119.35448-1.17702.68071-.32582.32624-.56007.73246-.67923 1.17788-.43828 1.64062-.43828 5.0625-.43828 5.0625s0 3.4219.43828 5.0602c.24141.9046.95391 1.6171 1.85625 1.8586 1.63828.4406 8.20547.4406 8.20547.4406s6.5672 0 8.2055-.4406c.9047-.2415 1.6148-.954 1.8562-1.8586.4383-1.6383.4383-5.0602.4383-5.0602s0-3.42187-.4383-5.06016zm-12.14764 8.20076v-6.28122l5.43754 3.11722z" fill="#000"/></svg>

<svg width="24" height="24" viewBox="0 0 24 24" fill="none" xmlns="http://www.w3.org/2000/svg"><path d="M22.0617 6.93984C21.9422 6.49462 21.7078 6.0886 21.382 5.76243 21.0563 5.43625 20.6505 5.20136 20.2055 5.08125 18.5672 4.64063 12 4.64062 12 4.64062c0 0-6.56719.0-8.20547.4382899999999994C3.34927 5.19862 2.94334 5.43339 2.61751 5.75962 2.29169 6.08586 2.05744 6.49208 1.93828 6.9375 1.5 8.57812 1.5 12 1.5 12 1.5 12 1.5 15.4219 1.93828 17.0602 2.17969 17.9648 2.89219 18.6773 3.79453 18.9188 5.43281 19.3594 12 19.3594 12 19.3594c0 0 6.5672.0 8.2055-.4405999999999999C21.1102 18.6773 21.8203 17.9648 22.0617 17.0602 22.5 15.4219 22.5 12 22.5 12 22.5 12 22.5 8.57813 22.0617 6.93984zM9.91406 15.1406V8.85938L15.3516 11.9766 9.91406 15.1406z" fill="#000"/></svg>
